X: 197
%
U:~=!turn!
T: General MacDonald
C:Neil Gow
O:Scotland
B:Keith Norman MacDonald : "The Skye collection of the best reels & strathspeys extant" : 1887
Z:Ralph Palmer
R:Reel
M:C|
L:1/8
K:C
f | (e>c) Tc2 (Gc) Tc2 | (ec) Tc2 egg>a | ec Tc2 GcEG | F_ED_B, DFF :| f | ec(gc) acgc | ecgc egga |
ecgc ac(gc) | (d/c/_B) fB dffg | e/d/c (gc) acgc | ecgc efga | ecdB {/B}cGAF | (D/_E/)F T_B2 E_B,B, |]


